X:1
T:Who Will Run with the Tidings?
T:Who Will Run with the Tidings?
T:Edmund Simon Lorenz
T:William Orcutt Cushing, 1880
T:Public Domain Courtesy of the Cyber Hymnal™
T:Public Domain Courtesy of the Cyber Hymnal™
C:Edmund Simon Lorenz
Z:Public Domain
Z:Courtesy of the Cyber Hymnal™
%%score ( 1 2 ) ( 3 4 )
L:1/8
Q:1/4=125
M:3/4
K:C
V:1 treble 
V:2 treble 
V:3 bass 
V:4 bass 
V:1
 [CE]2 [CE]2 [CE]2 | [CE]4 D[CE] | [CG]4 [B,F]2 | [B,D]4 [B,D][CE] | [DF]4 [DF]2 | %5
w: 1.~Some- one must|go to the|far off|lands Where the|tem- ple|
w: 2.~Some- one must|weep for the|soul that|sighs, In its|pain and|
w: 3.~O’er earth’s wide|realm send the|tid- ings|forth, Let the|news be|
 [DF]2 [CE]2 [DF]2 | [FA]4 [EG]2 | [CE]4 [CE][DF] | [EG]4 [Ec]2 | [Ec]2 [DB]2 [Ec]2 | [Fd]4 [FA]2 | %11
w: shrine of the|i- dol|stands, Where the|heart bows|down to its|gods of|
w: woe un- der|hea- then|skies; In the|far off|land where it|bows un-|
w: told of a|Sav- ior’s|birth; Let the|isles re-|joice and on|ev- ery|
 [Ac]4 [GB][FA] | [EG]4 [CE]2 | [EG]2 [Ec]2 [Ge]2 | [Fd]4 [DB]2 | [Ec]4 ||"^Refrain" [CE][DF] | %17
w: gold, And the|soul to|blind- ness and|death is|sold.||
w: blest, With no|hope to|cheer, with no|ark of|rest.|Who will|
w: shore, Shout the|glad new|song, life for-|ev- er-|more.||
 [EG]2 [Ec]2 [Ec]2 | [Ec]2 [DB]2 ([Ec][Ec]) | [Fd]2 [Fd]2 [Ge]2 | [Ec]4 [EG][EG] | %21
w: ||||
w: run with the|tid- ings and *|bear them a-|way, To the|
w: ||||
 [FA]2 [Fc]2 [Fc]2 | [^Fc]2 [FB]2 [Fc]2 | [Ge]2 [Gd]2 [G^c]2 | [Gd]4 [CE][DF] | [EG]2 [Ec]2 [Ec]2 | %26
w: |||||
w: soul in its|night as it|gropes for the|day? Who will|say when the|
w: |||||
 [Fd]2 [Fc]2 [Fd]2 | [Ge]2 [Ec]2 [EG]2 | [FA]4 [Fc]2 | G4 E2 | [B,G]4 [A,C]2 | [CE]4 [B,D]2 | C4 |] %33
w: |||||||
w: whis- per comes|o- ver the|sea, “Here,|Lord, am|I— send|me, send|me”?|
w: |||||||
V:2
 x6 | x4 D x | x6 | x6 | x6 | x6 | x6 | x6 | x6 | x6 | x6 | x6 | x6 | x6 | x6 | x4 || x2 | x6 | %18
 x6 | x6 | x6 | x6 | x6 | x6 | x6 | x6 | x6 | x6 | x6 | G4 E2 | x6 | x6 | C4 |] %33
V:3
 [C,G,]2 [C,G,]2 [C,G,]2 | [C,G,]4 [B,,G,][C,G,] | [E,G,]4 [D,G,]2 | [G,,G,]4 [G,,G,][G,,G,] | %4
 [G,,G,]4 [G,,B,]2 | [G,,B,]2 [G,,C]2 [G,,B,]2 | [C,C]4 [C,C]2 | [C,G,]4 [C,G,][C,G,] | %8
 [C,C]4 [C,G,]2 | A,2 A,2 A,2 | [F,A,]4 [F,C]2 | [F,C]4 [F,C][F,C] | [C,C]4 [C,G,]2 | %13
 [C,G,]2 [C,G,]2 [C,C]2 | [F,A,]4 G,2 | [C,G,]4 || z2 | z6 | z4 G,2 | [G,B,]2 [G,B,]2 G,2 | %20
 [C,G,]4 [C,C][C,C] | [F,C]2 [F,A,]2 [F,A,]2 | [D,A,]2 [D,D]2 [D,C]2 | [G,C]2 [G,B,]2 [G,^A,]2 | %24
 [G,B,]4 [C,G,][C,G,] | [C,C]2 [C,G,]2 [C,G,]2 | [C,A,]2 [C,A,]2 [C,A,]2 | [C,C]2 [C,G,]2 [C,C]2 | %28
 [F,C]4 [F,A,]2 | [E,C]4 [C,G,]2 | [G,,G,]4 [A,,E,]2 | [G,,G,]4 [G,,F,]2 | [C,E,]4 |] %33
V:4
 x6 | x6 | x6 | x6 | x6 | x6 | x6 | x6 | x6 | A,2 A,2 A,2 | x6 | x6 | x6 | x6 | x4 G,2 | x4 || x2 | %17
 x6 | x4 G,2 | x4 G,2 | x6 | x6 | x6 | x6 | x6 | x6 | x6 | x6 | x6 | x6 | x6 | x6 | x4 |] %33

